/* XPM */
static const char *ICO_SNAP32_xpm[] = {
/* columns rows colors chars-per-pixel */
"32 32 318 2 ",
"00 c #000000",
"01 c #FFFFFF",
"02 c #9292F1",
"03 c #2D2DE3",
"04 c #FAFAFF",
"05 c #FEFEFF",
"06 c #FDFDFF",
"07 c #6767EA",
"08 c #4444E6",
"09 c #FBFBFF",
"0a c #FBFBFE",
"0b c #4141E5",
"0c c #6B6BEA",
"0d c #FAFAFE",
"0e c #FFFEFE",
"0f c #FEFCFC",
"0g c #F7F7FE",
"0h c #2323E1",
"0i c #9595F0",
"0j c #E2E2FB",
"0k c #1212DE",
"0l c #BCBCF6",
"0m c #FCFCFF",
"0n c #FEFFFE",
"0o c #FEFEFE",
"0p c #FFFDFD",
"0q c #EF6767",
"0r c #FCDEDE",
"0s c #C3C3F7",
"0t c #1010DE",
"0u c #DBDCF9",
"0v c #FAFBFD",
"0w c #FDFEFE",
"0x c #FCFDFD",
"0y c #FCFCFB",
"0z c #EB4343",
"0A c #EB3F3F",
"0B c #FDEEEE",
"0C c #FFFFFE",
"0D c #9D9DF2",
"0E c #2724E6",
"0F c #F5F5FF",
"0G c #F5FAF8",
"0H c #EFF6F4",
"0I c #EFF6F3",
"0J c #F5F9F8",
"0K c #FDFDFD",
"0L c #EA4343",
"0M c #E84141",
"0N c #5361D5",
"0O c #3234DB",
"0P c #7EBB9E",
"0Q c #44977A",
"0R c #389072",
"0S c #338D6E",
"0T c #318D6D",
"0U c #389172",
"0V c #48987B",
"0W c #62AB92",
"0X c #A9CFC2",
"0Y c #F34749",
"0Z c #F24647",
"0! c #AAAAF4",
"0# c #E8F1F1",
"0$ c #87BCAB",
"0% c #398F74",
"0& c #45A16F",
"0' c #2334C8",
"0( c #1335B2",
"0) c #B0DBBD",
"0* c #BFDAD4",
"0+ c #D3E6E0",
"0, c #DBEAE5",
"0- c #D4E7E0",
"0. c #C3DCD3",
"0/ c #A9CEC0",
"0: c #76BAA5",
"0; c #A81E14",
"0< c #BB2921",
"0= c #3C9A7B",
"0> c #87BCA9",
"0? c #EAF2EE",
"0@ c #4C4CE7",
"0[ c #3334E2",
"0] c #6B6AEB",
"0^ c #CDC8FF",
"0_ c #9CCBB4",
"0` c #3D9D69",
"0{ c #5CA886",
"0| c #ACD0C6",
"0} c #EDF3F3",
"0~ c #F9FAFE",
"10 c #3A33ED",
"11 c #9A93FC",
"12 c #FF5255",
"13 c #FA4A4C",
"14 c #EBF4F1",
"15 c #B1D8CB",
"16 c #569F85",
"17 c #298867",
"18 c #88BDAB",
"19 c #DCDCFB",
"1a c #787FE3",
"1b c #001BB7",
"1c c #0017B4",
"1d c #4D66C7",
"1e c #E6E0FF",
"1f c #E3E4FA",
"1g c #0F10DB",
"1h c #ADAEFA",
"1i c #DBDCDD",
"1j c #DEDEDD",
"1k c #FBFEFE",
"1l c #E74746",
"1m c #E73C3B",
"1n c #FCFAFA",
"1o c #CEE4DD",
"1p c #439679",
"1q c #46987C",
"1r c #F0F6F5",
"1s c #FFFEFF",
"1t c #FCFCFE",
"1u c #FFFFFD",
"1v c #59AC7D",
"1w c #73B596",
"1x c #D1CCFF",
"1y c #7773F2",
"1z c #3334E1",
"1A c #4647E3",
"1B c #9898F0",
"1C c #E7E7FC",
"1D c #DCDCFE",
"1E c #2323BD",
"1F c #3E3E3E",
"1G c #080707",
"1H c #060606",
"1I c #3F4848",
"1J c #F15050",
"1K c #EF4142",
"1L c #FBF7FB",
"1M c #FAF9FC",
"1N c #F8FAFD",
"1O c #F9FAFC",
"1P c #6EB096",
"1Q c #439A75",
"1R c #FCFFF6",
"1S c #88BCAB",
"1T c #3E9278",
"1U c #F8F8FE",
"1V c #AFAFF4",
"1W c #5959E7",
"1X c #3333E1",
"1Y c #5A5AED",
"1Z c #AFAFDF",
"1! c #1C1C17",
"1# c #A50202",
"1$ c #B20606",
"1% c #E4E8E2",
"1& c #F9F5FF",
"1' c #398483",
"1( c #739BB7",
"1) c #BBBAF8",
"1* c #FDFEFD",
"1+ c #358F70",
"1, c #BDDAD0",
"1- c #FEFFFF",
"1. c #FAFBFC",
"1/ c #E8E8F9",
"1: c #9898F8",
"1; c #202077",
"1< c #050406",
"1= c #0F0202",
"1> c #B61111",
"1? c #C31617",
"1@ c #020202",
"1[ c #606382",
"1] c #9C9CF7",
"1^ c #8282EA",
"1_ c #7070EB",
"1` c #5D5DE9",
"1{ c #4D4DE6",
"1| c #3839E3",
"1} c #3636E3",
"1~ c #3537E0",
"20 c #0821BC",
"21 c #494AE5",
"22 c #F1F8F6",
"23 c #308C6C",
"24 c #DFEDE8",
"25 c #FFFFFC",
"26 c #6B6B5F",
"27 c #010403",
"28 c #210303",
"29 c #9C0E0E",
"2a c #050204",
"2b c #010201",
"2c c #1E1B54",
"2d c #6161F3",
"2e c #7373E8",
"2f c #8A8AEF",
"2g c #A0A0F2",
"2h c #B6B6F5",
"2i c #CACAF8",
"2j c #DDDDFA",
"2k c #EEEEFD",
"2l c #DFECEA",
"2m c #33926A",
"2n c #FBFFF3",
"2o c #FCFEFD",
"2p c #358F6F",
"2q c #BFDCD2",
"2r c #FAFAFB",
"2s c #838385",
"2t c #070607",
"2u c #050706",
"2v c #8C8D86",
"2w c #C9E1D8",
"2x c #318C6D",
"2y c #F7FAFB",
"2z c #85BCA8",
"2A c #46987B",
"2B c #E7E7E7",
"2C c #171717",
"2D c #030200",
"2E c #020000",
"2F c #E5E5E6",
"2G c #F9F9FD",
"2H c #FBFCFD",
"2I c #FAFCFD",
"2J c #4C9B80",
"2K c #7DB7A3",
"2L c #F9FCFB",
"2M c #409577",
"2N c #6AAC95",
"2O c #D1D1D1",
"2P c #010107",
"2Q c #080808",
"2R c #71B09A",
"2S c #3B9274",
"2T c #F6FAF9",
"2U c #F0F7F5",
"2V c #45987B",
"2W c #45977A",
"2X c #D1E6DF",
"2Y c #F8FAFC",
"2Z c #CDCDFC",
"2! c #3232C6",
"2# c #DEDFDE",
"2$ c #FBFCFB",
"2% c #D5E8E1",
"2& c #499A7D",
"2' c #419578",
"2( c #EDF5F2",
"2) c #86BBA8",
"2* c #288866",
"2+ c #5AA389",
"2, c #B7D7CC",
"2- c #9897F2",
"2. c #5E5CF2",
"2/ c #F7FAF9",
"2: c #BAD9CE",
"2; c #5CA58B",
"2< c #288766",
"2= c #81B9A5",
"2> c #E7F2EE",
"2? c #81B9A6",
"2@ c #328D6D",
"2[ c #56A187",
"2] c #85BBA8",
"2^ c #AACEC5",
"2_ c #CDE5D8",
"2` c #5C62E0",
"2{ c #747AE2",
"2| c #E2EFE8",
"2} c #D7E7E4",
"2~ c #CAE2D9",
"30 c #AED2C6",
"31 c #86BCA9",
"32 c #57A288",
"33 c #379071",
"34 c #7EB8A4",
"35 c #E4F0EC",
"36 c #CCE3DB",
"37 c #90C1B0",
"38 c #60A78E",
"39 c #43957B",
"3a c #399869",
"3b c #0C26BC",
"3c c #22618F",
"3d c #339465",
"3e c #318B6E",
"3f c #429679",
"3g c #5FA68D",
"3h c #8EC0AF",
"3i c #CAE2DA",
"3j c #F7F9FC",
"3k c #3030E2",
"3l c #C8D1ED",
"3m c #EAF4EF",
"3n c #EFF5F4",
"3o c #FBFDFC",
"3p c #DFDEFC",
"3q c #3131E3",
"3r c #FFFCFF",
"3s c #B2B3F4",
"3t c #4444E5",
"3u c #FBFCFE",
"3v c #8585EE",
"3w c #6868EA",
"3x c #5B5BE8",
"3y c #9494F0",
"3z c #3C3CE4",
"3A c #C1C1F6",
"3B c #F3F3FE",
"3C c #2E2EE2",
"3D c #E9E9FC",
"3E c #CDCDF9",
"3F c #3737E5",
/* pixels */
"0000000000000000000000000000000000000000000000000000000000000000",
"0001010203040501010101010101010101010101010101010101010101010100",
"0001060107080109010101010101010101010101010101010101010101010100",
"0001050a010b0c010d0101010101010101010101010101010e0f0e0101010100",
"00010106060g0h0i010a010101010101010101010101010e0101010101010100",
"0001010106010j0k0l010m0101010n0o0o0n010101010p010p0q0r010p010100",
"00010101010m010s0t0u010v0o0101010101010w0x0y0e0p0z0A0B0p0e010100",
"000m050101010d0C0D0E0F0101010G0H0I0J010101010K0L0M0o010e01010100",
"00010109060x0101010N0O0P0Q0R0S0T0T0S0U0V0W0X0Y0Z01010y0101010100",
"000!0g0101010#0$0%0&0'0(0)0*0+0,0,0-0.0/0:0;0<0=0>0?010n0o010100",
"000@0[0]0^0_0`0{0|0}0~1011010101010101011213141516171801010o0100",
"0001191a1b1c1d1e0101011f1g1h011i1j011k1l1m1n0101011o1p1q1r1s1t00",
"001t1u1v1w1x1y1z1A1B1C011D1E1F1G1H1I1J1K1L0a1M1N1O01011P1Q1R0100",
"00011S1T010C011U1V1W1X1Y1Z1!0000001#1$1%01010101010C0x1&1'1(1)00",
"001*1+1,1-1.090101011/1:1;001<1=1>1?1@1[1]1^1_1`1{0b1|1}1~202100",
"002223240n0w01050m0m2501261@2728292a2b2c2d2e2f2g2h2i2j2k2l2m2n00",
"002o2p2q0o0x010101012r0m2s002t00002u002v010C010101010C0C2w2x2y00",
"00012z2A012o1*0101010o0o2B2C002D2E002C2F0d2G0a0m0m2H2I012J2K0100",
"001-2L2M2N01010x2o0n010K012O1F2P2Q1F2O010K010n1*0x01012R2S2T1-00",
"001-012U2V2W2X0101012o0x2Y012Z2!2#01012$0x0x0101012%2&2'2(011-00",
"00010o01012)2*2+2,0G010101012-2.0101010101012/2:2;2<2=01010o0100",
"0001010o1-012>2?0U2@2[2]2^2_2`2{2|2}2~3031320S33343501010o010100",
"00010101010x010101363738393a3b3c3d3e1+3f3g3h3i0101010x0101010100",
"0001010101010o0x01010101013j3k3l3m3n3o01010101010x0o010101010100",
"0001010101010101011*3o2I0o3p3q3r0101010o0x3o1*1-0101010101010100",
"00010101010101010101010m013s3t0C3u0n1-01010101010101010101010100",
"00010101010101010101010a013v3w010a010101010101010101010101010100",
"00010101010101010101010a013x3y010a010101010101010101010101010100",
"000101010101010101010106013z3A010m010101010101010101010101010100",
"0001010101010101010105013B3C3D0105010101010101010101010101010100",
"0001010101010101010105013E3F010101010101010101010101010101010100",
"0000000000000000000000000000000000000000000000000000000000000000"
};
