/* XPM */
static const char *ICO_SNAP16_xpm[] = {
/* columns rows colors chars-per-pixel */
"16 16 129 2 ",
"00 c #000000",
"01 c #FFFFFF",
"02 c #8D8DF8",
"03 c #DADAFF",
"04 c #FDFDFC",
"05 c #F2F2F9",
"06 c #7373E8",
"07 c #DDDEF6",
"08 c #FEFEFD",
"09 c #FFFDFF",
"0a c #FDFAFA",
"0b c #FBFFFF",
"0c c #F5CFCE",
"0d c #F7E9E9",
"0e c #FCFCFC",
"0f c #FCFCFD",
"0g c #EEE9FF",
"0h c #857FF7",
"0i c #F1F3FB",
"0j c #ECF5F1",
"0k c #DFECE8",
"0l c #E0EDE9",
"0m c #EBF1ED",
"0n c #FFC1C3",
"0o c #FC7E80",
"0p c #FAF1F1",
"0q c #EEEDFF",
"0r c #DCF3DC",
"0s c #77A0B7",
"0t c #3E5ABF",
"0u c #8FC4A9",
"0v c #95C5B6",
"0w c #97C4B4",
"0x c #87C9B7",
"0y c #A28D80",
"0z c #B7574E",
"0A c #C6E0D8",
"0B c #9897FA",
"0C c #576FC0",
"0D c #5F8DAE",
"0E c #D5E9DF",
"0F c #C2C2F5",
"0G c #A7A4FF",
"0H c #FAF4F7",
"0I c #F2F8F9",
"0J c #FFC7C8",
"0K c #F27778",
"0L c #DCE8E1",
"0M c #96CAB6",
"0N c #8EC2AA",
"0O c #FEFFF9",
"0P c #A5D6BE",
"0Q c #ACC1D5",
"0R c #B8AFFF",
"0S c #8B87F2",
"0T c #AEAEFB",
"0U c #6C6CAA",
"0V c #101214",
"0W c #4E1817",
"0X c #DF6564",
"0Y c #FFFAF9",
"0Z c #FEFBFF",
"0! c #FCF4FF",
"0# c #A3BECC",
"0$ c #83ADC4",
"0% c #9ACCBC",
"0& c #FFFFFC",
"0' c #FBFBFC",
"0( c #CFCEFC",
"0) c #1E232E",
"0* c #0D0000",
"0+ c #6F0400",
"0, c #2D283A",
"0- c #9495F5",
"0. c #9090ED",
"0/ c #9093EC",
"0: c #A6A1F8",
"0; c #6786CD",
"0< c #90C8B4",
"0= c #FAFBFB",
"0> c #FAFBFA",
"0? c #FFFFFE",
"0@ c #646563",
"0[ c #5B5E5F",
"0] c #F6F7FC",
"0^ c #FBFDFA",
"0_ c #99D3B2",
"0` c #CBE6DD",
"0{ c #7EB6A2",
"0| c #E0EEE9",
"0} c #FFFAFC",
"0~ c #575582",
"10 c #87828B",
"11 c #FFFBFC",
"12 c #E0EDEA",
"13 c #7CB4A3",
"14 c #C7E3DC",
"15 c #D0E4DD",
"16 c #86BCA9",
"17 c #8DC0AE",
"18 c #B0D4C7",
"19 c #CFE5DE",
"1a c #828BF1",
"1b c #E4F5F4",
"1c c #CFE5DD",
"1d c #B0D3C7",
"1e c #8EC0AF",
"1f c #CFE3DC",
"1g c #FDFEFE",
"1h c #DDECE7",
"1i c #B5D7CA",
"1j c #90B8BB",
"1k c #546EC2",
"1l c #94C4AF",
"1m c #9CC7BA",
"1n c #B5D6CA",
"1o c #DCECE6",
"1p c #FEFEFE",
"1q c #DFD9FF",
"1r c #A9A6F8",
"1s c #F9F9F9",
"1t c #F8F9FB",
"1u c #F9FBFA",
"1v c #B1B3F0",
"1w c #B5B6F1",
"1x c #F6F8FA",
"1y c #FBFBFB",
"1z c #A5A5FE",
"1A c #E2E2FF",
/* pixels */
"00000000000000000000000000000000",
"00010203010101010101010101010100",
"000405060708090101010a0b0c0d0e00",
"00010f0g0h0i0j0k0l0m0b0n0o0p0100",
"000q010r0s0t0u0v0w0x0y0z0A010100",
"000B0C0D0E0F0G0H0I0J0K0L0M0N0O00",
"000P0Q0R0S0T0U0V0W0X0Y0Z0!0#0$00",
"000%010&0'0(0)0*0+0,0-0.0/0:0;00",
"000<0=010>0?0@00000[0]0^010?0_00",
"000`0{0|01010}0~1011010112131400",
"000115161718191a1b1c1d1e161f0100",
"001g01011h1i1j1k1l1m1n1o01011g00",
"00010=1p01011q1r010101011p0=0100",
"000e1s0e1t1u1v1w1u1x1u1y0e1s0e00",
"0001010101011z1A0101010101010100",
"00000000000000000000000000000000"
};
